icon-svg/rooms-porch.svg

<svg xmlns="http://www.w3.org/2000/svg" fill="#44739e" viewBox="0 0 24 24"><path d="m13.786 25.705 1.453-4.555 3.126-.458 1.955 5.069c-2.135.326-4.42.312-6.534-.056m-2.952-10.643c.687-.102 1.761-.261 2.984-.442l.861 3.594-2.955.44zm8.933 2.393-3.103.463-.858-3.588c1.078-.156 2.16-.312 3.107-.442zm7.102 6.986c-.274-.479-.886-.646-1.364-.374-.932.531-2.013.955-3.203 1.278l-1.909-4.95L26 19.574c-.234-1.637-1.748-2.775-3.385-2.545l-.861.129-.848-3.535c.196-.024.367-.045.506-.06.565.012 1.023.472 1.023 1.039 0 .553.448 1 1 1 .553 0 1-.447 1-1 0-1.677-1.365-3.043-3.044-3.043-.018 0-.033.01-.051.011-.018 0-.033-.007-.05-.006-1.738.177-8.813 1.231-10.941 1.548L8.48 5.577A2.076 2.076 0 0 0 6.465 4H5l4.443 18 3.595-.526-1.204 3.774c-1.052-.311-2.009-.703-2.847-1.181-.479-.272-1.091-.105-1.364.374-.274.481-.106 1.091.374 1.365 1.218.693 2.63 1.235 4.195 1.613 1.604.386 3.304.581 5.054.581s3.45-.195 5.054-.581c1.565-.377 2.976-.92 4.195-1.613.479-.274.647-.884.374-1.365"/></svg>

<?xml version="1.0" encoding="UTF-8"?>
<svg width="32px" height="32px" viewBox="0 0 32 32" version="1.1" fill="#44739e" xmlns="http://www.w3.org/2000/svg" xmlns:xlink="http://www.w3.org/1999/xlink">
            <path d="M13.786,25.705 L15.239,21.15 L18.365,20.692 L20.32,25.761 C18.185,26.087 15.9,26.073 13.786,25.705 Z M10.834,15.062 C11.521,14.96 12.595,14.801 13.818,14.62 L14.679,18.214 L11.724,18.654 L10.834,15.062 Z M19.767,17.455 L16.664,17.918 L15.806,14.33 C16.884,14.174 17.966,14.018 18.913,13.888 L19.767,17.455 Z M26.869,24.441 C26.595,23.962 25.983,23.795 25.505,24.067 C24.573,24.598 23.492,25.022 22.302,25.345 L20.393,20.395 L26,19.574 C25.766,17.937 24.252,16.799 22.615,17.029 L21.754,17.158 L20.906,13.623 C21.102,13.599 21.273,13.578 21.412,13.563 C21.977,13.575 22.435,14.035 22.435,14.602 C22.435,15.155 22.883,15.602 23.435,15.602 C23.988,15.602 24.435,15.155 24.435,14.602 C24.435,12.925 23.07,11.559 21.391,11.559 C21.373,11.559 21.358,11.569 21.34,11.57 C21.322,11.57 21.307,11.563 21.29,11.564 C19.552,11.741 12.477,12.795 10.349,13.112 L8.48,5.577 C8.25,4.65 7.419,4 6.465,4 L5,4 L9.443,22 L13.038,21.474 L11.834,25.248 C10.782,24.937 9.825,24.545 8.987,24.067 C8.508,23.795 7.896,23.962 7.623,24.441 C7.349,24.922 7.517,25.532 7.997,25.806 C9.215,26.499 10.627,27.041 12.192,27.419 C13.796,27.805 15.496,28 17.246,28 C18.996,28 20.696,27.805 22.3,27.419 C23.865,27.042 25.276,26.499 26.495,25.806 C26.974,25.532 27.142,24.922 26.869,24.441 Z"></path>
</svg>
